modules/zondicons/icons/home.svg

<svg width="20" height="20" viewBox="0 0 20 20" xmlns="http://www.w3.org/2000/svg"><path d="M17 10h3L10 0 0 10h3v10h14V10zm-9 4h4v6H8v-6z" fill="#000" fill-rule="evenodd"/></svg>

<?xml version="1.0" encoding="UTF-8" standalone="no"?>
<svg width="20px" height="20px" viewBox="0 0 20 20" version="1.1" xmlns="http://www.w3.org/2000/svg" xmlns:xlink="http://www.w3.org/1999/xlink">
    <!-- Generator: Sketch 3.7.2 (28276) - http://www.bohemiancoding.com/sketch -->
    <title>home</title>
    <desc>Created with Sketch.</desc>
    <defs></defs>
    <g id="Page-1" stroke="none" stroke-width="1" fill="none" fill-rule="evenodd">
        <g id="home" fill="#000000">
            <path d="M17,10 L20,10 L10,0 L0,10 L3,10 L3,20 L17,20 L17,10 Z M8,14 L12,14 L12,20 L8,20 L8,14 Z" id="Combined-Shape"></path>
        </g>
    </g>
</svg>
